lib/svgs/unarchive.svg

<svg xmlns="http://www.w3.org/2000/svg" viewBox="0 0 20 20">
    <path fill="#000" fill-rule="evenodd" d="M2.6,6.626 C2.26862915,6.626 2,6.35737085 2,6.026 L2,2.6 C2,2.26862915 2.26862915,2 2.6,2 L18.18,2 C18.5113708,2 18.78,2.26862915 18.78,2.6 L18.78,6.026 C18.78,6.35737085 18.5113708,6.626 18.18,6.626 L17.5353,6.626 L17.5353,17.6755 C17.5353,18.0068708 17.2666708,18.2755 16.9353,18.2755 L3.8443,18.2755 C3.51292915,18.2755 3.2443,18.0068708 3.2443,17.6755 L3.2443,6.626 L2.6,6.626 L2.6,6.626 L2.6,6.626 L2.6,6.626 Z M16.3353002,17.0855966 L16.3353,6.626 L4.4443,6.626 L4.44430002,17.0755001 M3.25274525,3.20000002 L3.25274525,5.42599998 L17.5799995,5.42599998 L17.5799995,3.20000002 M9.7898,10.7968281 L8.79126407,11.7953641 C8.55694949,12.0296786 8.17705051,12.0296786 7.94273593,11.7953641 C7.70842136,11.5610495 7.70842136,11.1811505 7.94273593,10.9468359 L9.96573593,8.92383593 C10.2000505,8.68952136 10.5799495,8.68952136 10.8142641,8.92383593 L12.8372641,10.9468359 C13.0715786,11.1811505 13.0715786,11.5610495 12.8372641,11.7953641 C12.6029495,12.0296786 12.2230505,12.0296786 11.9887359,11.7953641 L10.9898,10.7964281 L10.9898,13.6141 C10.9898,13.9454708 10.7211708,14.2141 10.3898,14.2141 C10.0584292,14.2141 9.7898,13.9454708 9.7898,13.6141 L9.7898,10.7968281 L9.7898,10.7968281 Z"/>
</svg>

<svg xmlns="http://www.w3.org/2000/svg" viewBox="0 0 20 20">
    <path fill="#000" fill-rule="evenodd" d="M2.6 6.626a.6.6 0 0 1-.6-.6V2.6a.6.6 0 0 1 .6-.6h15.58a.6.6 0 0 1 .6.6v3.426a.6.6 0 0 1-.6.6h-.645v11.05a.6.6 0 0 1-.6.6H3.845a.6.6 0 0 1-.6-.6V6.625H2.6m13.735 10.46V6.626H4.445v10.45M3.252 3.2v2.226H17.58V3.2m-7.79 7.597l-.999.998a.6.6 0 0 1-.848-.848l2.023-2.023a.6.6 0 0 1 .848 0l2.023 2.023a.6.6 0 0 1-.848.848l-1-.999v2.818a.6.6 0 0 1-1.2 0v-2.817"/>
</svg>
